X: 26
T:Parisot's Hornpipe (#330)
M:4/4
L:1/8
S:Wilson's Companion to the Ballroom 1816
R:Hornpipe
K:G
B>A|G>FG>A B>AB>G|c>dc>B A2 B>A|G>FG>A B>AB>G|A>GF>E D2 B>A|
G>FG>A B>AB>G|c>dc>B A2 d>c|B>dG>B A>cF>A|G2 G2 G2:|
|:A>G|F>GE>F D2 c>B|A>BG>A F2 d>c|cAed cAed|cBcB cAGF|
G>FG>A B>AB>G|c>dc>B A2 d>c|B>dG>B A>cF>A|G2 G2 G2:||

